X:1
T:Satisfied with Thee, Lord Jesus
T:Satisfied with Thee, Lord Jesus
T:Henry Bennett
T:Henry Bennett (1813-1868)
T:Public Domain Courtesy of the Cyber Hymnal™
C:Henry Bennett
Z:Public Domain
Z:Courtesy of the Cyber Hymnal™
%%score 1 ( 2 3 )
L:1/8
Q:1/4=115
M:4/4
K:Bb
V:1 treble 
V:2 bass 
V:3 bass 
V:1
 [B,D]2 [B,E]2 [B,F]2 [B,G]2 | [DF]2 [EG]2 [EA]2 [FB]2 | [Fd]4 [=EB]4 | [Fc]8 | %4
w: 1.~Sa- tis- fied with|Thee, Lord Je- sus,|I am|blest;|
w: 2.~Oc- cu- pied with|Thee, Lord Je- sus,|In Thy|grace;|
w: 3.~Tak- en up with|Thee, Lord Je- sus,|I would|be;|
w: 4.~List- ening for Thy|shout, Lord Je- sus,|In the|air!|
 [B,D]2 [A,E]2 [B,F]2 [B,G]2 | [B,F]2 [B,G]2 [EA]2 [DB]2 | [Fd]4 ([Ge]2 [Fd]2) | [Fc]8 | %8
w: Peace which pass- eth|un- der- stand- ing,|On Thy *|breast;|
w: All Thy ways and|thoughts a- bout me|On- ly *|trace|
w: Find- ing joy and|sa- tis- fact- ion|All in *|Thee;|
w: When Thy saints shall|rise with joy to|Meet Thee *|there;|
 [DB]6 [CB]2 | [DB]2 [CA]6 | [Ec]6 [Ec]2 | [Ec]2 [DB]6 | [Fd]6 [_Ad]2 | ([Ge]4 [EG]4) | %14
w: No more|doubt- ing,|no more|trem- bling,|Oh, what|rest! *|
w: Deep- er|sto- ries|of the|glo- ries|Of Thy|grace, *|
w: Thou the|near- est|and the|dear- est|Un- to|me, *|
w: O what|glad- ness!|no more|sad- ness,|Sin nor|care, *|
 ([DF]2 [Fd]4) [Ec]2 | [DB]8 |] %16
w: Oh, * what|rest!|
w: of * Thy|grace.|
w: un- * to|me.|
w: sin * nor|care.|
V:2
 [B,,F,]2 [B,,G,]2 [B,,D,]2 [B,,E,]2 | [B,,B,]2 [E,B,]2 [C,F,]2 [D,B,]2 | [B,,B,]4 [G,C]4 | %3
 [F,A,]8 | [B,,F,]2 [C,F,]2 [D,F,]2 E,2 | [D,F,]2 E,2 [C,F,]2 [B,,F,]2 | [B,,B,]4 B,4 | [F,A,]8 | %8
 [B,,F,]6 [B,,F,]2 | [F,,F,]2 [F,,F,]6 | [F,A,]6 [F,A,]2 | [F,A,]2 [B,,B,]6 | [B,,B,]6 [B,,B,]2 | %13
 ([E,B,]4 [C,C]4) | [F,B,]6 [F,A,]2 | [B,,B,]8 |] %16
V:3
 x8 | x8 | x8 | x8 | x6 E,2 | x2 E,2 x4 | x4 (E,2 B,,2) | x8 | x8 | x8 | x8 | x8 | x8 | x8 | x8 | %15
 x8 |] %16

